data/logos/opendappscloud.svg

<?xml version="1.0" encoding="UTF-8"?><svg id="Layer_2" xmlns="http://www.w3.org/2000/svg" viewBox="0 0 531.79 531.79"><defs><style>.cls-1{fill:#fff;}.cls-2{fill:#0071bc;}</style></defs><g id="Layer_1-2"><path class="cls-1" d="m97.22,230.77c-6.66-3.68-11.86-8.8-15.61-15.34-3.75-6.54-5.62-13.96-5.62-22.27s1.87-15.73,5.62-22.27c3.75-6.54,8.95-11.65,15.61-15.34,6.66-3.68,14.18-5.53,22.56-5.53s15.88,1.84,22.48,5.53c6.61,3.69,11.78,8.8,15.53,15.34,3.75,6.54,5.62,13.96,5.62,22.27s-1.87,15.73-5.62,22.27c-3.75,6.54-8.93,11.65-15.53,15.34-6.61,3.69-14.1,5.53-22.48,5.53s-15.9-1.84-22.56-5.53Zm37.13-20.71c3.79-4.2,5.69-9.83,5.69-16.89s-1.9-12.69-5.69-16.89c-3.8-4.2-8.65-6.31-14.57-6.31s-10.8,2.1-14.64,6.31-5.77,9.84-5.77,16.89,1.92,12.69,5.77,16.89c3.85,4.2,8.73,6.31,14.64,6.31s10.77-2.1,14.57-6.31Z"/><path class="cls-1" d="m242.81,155.41c6.06,3.58,10.82,8.62,14.27,15.1,3.45,6.49,5.18,14.04,5.18,22.66s-1.73,16.17-5.18,22.66c-3.45,6.49-8.21,11.52-14.27,15.1s-12.8,5.37-20.19,5.37c-10.16,0-18.15-3.37-23.96-10.12v39.08h-23.08v-113.98h22.04v9.65c5.72-7.26,14.05-10.9,25-10.9,7.4,0,14.13,1.79,20.19,5.37Zm-9.62,54.65c3.8-4.2,5.7-9.83,5.7-16.89s-1.9-12.69-5.7-16.89c-3.8-4.2-8.65-6.31-14.57-6.31s-10.78,2.1-14.57,6.31c-3.8,4.2-5.7,9.84-5.7,16.89s1.9,12.69,5.7,16.89c3.79,4.2,8.65,6.31,14.57,6.31s10.77-2.1,14.57-6.31Z"/><path class="cls-1" d="m352.82,200.02h-60.21c1.08,5.19,3.65,9.29,7.69,12.3,4.04,3.01,9.07,4.52,15.09,4.52,4.14,0,7.81-.65,11.02-1.95,3.2-1.3,6.19-3.35,8.95-6.15l12.28,14.01c-7.5,9.03-18.44,13.55-32.84,13.55-8.97,0-16.91-1.84-23.82-5.53-6.9-3.68-12.23-8.8-15.98-15.34-3.75-6.54-5.62-13.96-5.62-22.27s1.85-15.6,5.55-22.19c3.7-6.59,8.78-11.73,15.24-15.42,6.46-3.68,13.68-5.53,21.67-5.53s14.84,1.77,21.15,5.29c6.31,3.53,11.27,8.59,14.87,15.18,3.6,6.59,5.4,14.25,5.4,22.97,0,.31-.15,2.49-.44,6.54Zm-53.99-26.94c-3.55,3.11-5.72,7.37-6.51,12.77h39.2c-.79-5.29-2.96-9.52-6.51-12.69-3.55-3.17-7.89-4.75-13.02-4.75s-9.61,1.56-13.17,4.67Z"/><path class="cls-1" d="m437.46,159.38c6.06,6.23,9.1,15.47,9.1,27.72v47.96h-23.08v-44.22c0-6.64-1.38-11.6-4.14-14.87-2.76-3.27-6.76-4.9-11.98-4.9-5.82,0-10.45,1.9-13.9,5.68-3.45,3.79-5.18,9.42-5.18,16.89v41.42h-23.08v-83.77h22.04v9.81c3.06-3.53,6.85-6.25,11.39-8.17,4.54-1.92,9.52-2.88,14.94-2.88,9.86,0,17.82,3.11,23.89,9.34Z"/><path class="cls-1" d="m162.98,264.31v115.54h-22.04v-9.65c-5.72,7.27-14,10.9-24.85,10.9-7.5,0-14.27-1.76-20.34-5.29-6.06-3.53-10.82-8.56-14.27-15.1-3.45-6.54-5.18-14.12-5.18-22.73s1.72-16.19,5.18-22.73c3.45-6.54,8.21-11.57,14.27-15.1,6.06-3.53,12.84-5.29,20.34-5.29,10.16,0,18.1,3.37,23.82,10.12v-40.64h23.08Zm-28.4,90.54c3.85-4.2,5.77-9.83,5.77-16.89s-1.92-12.69-5.77-16.89c-3.85-4.2-8.68-6.31-14.5-6.31s-10.8,2.1-14.64,6.31c-3.85,4.2-5.77,9.84-5.77,16.89s1.92,12.69,5.77,16.89c3.85,4.2,8.73,6.31,14.64,6.31s10.65-2.1,14.5-6.31Z"/><path class="cls-1" d="m241.43,304.09c6.61,6.18,9.91,15.49,9.91,27.95v47.8h-21.6v-10.43c-4.34,7.79-12.43,11.68-24.26,11.68-6.12,0-11.42-1.09-15.9-3.27-4.49-2.18-7.91-5.19-10.28-9.03-2.37-3.84-3.55-8.2-3.55-13.08,0-7.79,2.79-13.91,8.36-18.37,5.57-4.46,14.17-6.7,25.81-6.7h18.34c0-5.29-1.53-9.37-4.59-12.22-3.06-2.85-7.64-4.28-13.76-4.28-4.24,0-8.41.7-12.5,2.1-4.09,1.4-7.57,3.3-10.43,5.68l-8.28-16.97c4.34-3.22,9.54-5.71,15.61-7.47,6.06-1.76,12.3-2.65,18.71-2.65,12.33,0,21.79,3.09,28.4,9.26Zm-19.67,57.77c3.06-1.92,5.23-4.75,6.51-8.49v-8.56h-15.83c-9.47,0-14.2,3.27-14.2,9.81,0,3.11,1.16,5.58,3.48,7.4,2.32,1.82,5.5,2.72,9.54,2.72s7.44-.96,10.5-2.88Z"/><path class="cls-1" d="m335.61,300.2c6.06,3.58,10.82,8.62,14.27,15.1,3.45,6.49,5.18,14.04,5.18,22.66s-1.73,16.17-5.18,22.66c-3.45,6.49-8.21,11.52-14.27,15.1s-12.8,5.37-20.19,5.37c-10.16,0-18.15-3.37-23.96-10.12v39.08h-23.08v-113.98h22.04v9.65c5.72-7.26,14.05-10.9,25-10.9,7.4,0,14.13,1.79,20.19,5.37Zm-9.62,54.65c3.8-4.2,5.7-9.83,5.7-16.89s-1.9-12.69-5.7-16.89c-3.8-4.2-8.65-6.31-14.57-6.31s-10.78,2.1-14.57,6.31c-3.8,4.2-5.7,9.84-5.7,16.89s1.9,12.69,5.7,16.89c3.79,4.2,8.65,6.31,14.57,6.31s10.77-2.1,14.57-6.31Z"/><path class="cls-1" d="m434.83,300.2c6.06,3.58,10.82,8.62,14.27,15.1,3.45,6.49,5.18,14.04,5.18,22.66s-1.73,16.17-5.18,22.66c-3.45,6.49-8.21,11.52-14.27,15.1s-12.8,5.37-20.19,5.37c-10.16,0-18.15-3.37-23.96-10.12v39.08h-23.08v-113.98h22.04v9.65c5.72-7.26,14.05-10.9,25-10.9,7.4,0,14.13,1.79,20.19,5.37Zm-9.62,54.65c3.8-4.2,5.7-9.83,5.7-16.89s-1.9-12.69-5.7-16.89c-3.8-4.2-8.65-6.31-14.57-6.31s-10.78,2.1-14.57,6.31c-3.8,4.2-5.7,9.84-5.7,16.89s1.9,12.69,5.7,16.89c3.79,4.2,8.65,6.31,14.57,6.31s10.77-2.1,14.57-6.31Z"/><path class="cls-1" d="m474.84,378.52c-6.31-1.71-11.34-3.87-15.09-6.46l7.69-17.44c3.55,2.39,7.84,4.34,12.87,5.84,5.03,1.51,9.96,2.26,14.79,2.26,9.76,0,14.64-2.54,14.64-7.63,0-2.39-1.33-4.1-3.99-5.14-2.66-1.04-6.76-1.92-12.28-2.65-6.51-1.04-11.88-2.23-16.12-3.58-4.24-1.35-7.91-3.74-11.02-7.16s-4.66-8.3-4.66-14.64c0-5.29,1.45-9.99,4.36-14.09,2.91-4.1,7.15-7.29,12.72-9.58,5.57-2.28,12.15-3.43,19.75-3.43,5.62,0,11.22.65,16.79,1.95,5.57,1.3,10.18,3.09,13.83,5.37l-7.69,17.28c-7-4.15-14.64-6.23-22.93-6.23-4.93,0-8.63.73-11.09,2.18-2.47,1.45-3.7,3.32-3.7,5.61,0,2.6,1.33,4.41,3.99,5.45,2.66,1.04,6.9,2.02,12.72,2.96,6.51,1.14,11.83,2.36,15.98,3.66,4.14,1.3,7.74,3.66,10.8,7.08,3.06,3.43,4.59,8.2,4.59,14.33,0,5.19-1.48,9.81-4.44,13.86-2.96,4.05-7.27,7.19-12.94,9.42-5.67,2.23-12.4,3.35-20.19,3.35-6.61,0-13.07-.86-19.38-2.57Z"/><path class="cls-2" d="m348.36,531.79h-164.94c-17.84,0-34.62-6.95-47.23-19.57l-116.63-116.63c-12.62-12.62-19.56-29.39-19.56-47.23v-164.94c0-17.84,6.95-34.62,19.56-47.23L136.19,19.56C148.81,6.95,165.58,0,183.43,0h164.94c17.84,0,34.62,6.95,47.23,19.56l116.63,116.63c12.62,12.62,19.57,29.39,19.57,47.23v78.29h-15v-78.29c0-13.84-5.39-26.84-15.17-36.63l-116.63-116.63c-9.78-9.78-22.79-15.17-36.63-15.17h-164.94c-13.84,0-26.84,5.39-36.63,15.17L30.17,146.8c-9.78,9.78-15.17,22.79-15.17,36.63v164.94c0,13.84,5.39,26.84,15.17,36.63l116.63,116.63c9.78,9.78,22.79,15.17,36.63,15.17h164.94c13.84,0,26.84-5.39,36.63-15.17l89.63-89.63,10.61,10.61-89.63,89.63c-12.62,12.62-29.39,19.57-47.23,19.57Z"/></g></svg>

<svg viewBox="0 0 532 532" fill="none" xmlns="http://www.w3.org/2000/svg">
    <g clip-path="url(#clip0_209_2439)">
        <path
            d="M97.22 230.77C90.56 227.09 85.36 221.97 81.61 215.43C77.86 208.89 75.99 201.47 75.99 193.16C75.99 184.85 77.86 177.43 81.61 170.89C85.36 164.35 90.56 159.24 97.22 155.55C103.88 151.87 111.4 150.02 119.78 150.02C128.16 150.02 135.66 151.86 142.26 155.55C148.87 159.24 154.04 164.35 157.79 170.89C161.54 177.43 163.41 184.85 163.41 193.16C163.41 201.47 161.54 208.89 157.79 215.43C154.04 221.97 148.86 227.08 142.26 230.77C135.65 234.46 128.16 236.3 119.78 236.3C111.4 236.3 103.88 234.46 97.22 230.77ZM134.35 210.06C138.14 205.86 140.04 200.23 140.04 193.17C140.04 186.11 138.14 180.48 134.35 176.28C130.55 172.08 125.7 169.97 119.78 169.97C113.86 169.97 108.98 172.07 105.14 176.28C101.3 180.49 99.37 186.12 99.37 193.17C99.37 200.22 101.29 205.86 105.14 210.06C108.99 214.26 113.87 216.37 119.78 216.37C125.69 216.37 130.55 214.27 134.35 210.06Z"
            fill="white" />
        <path
            d="M242.81 155.41C248.87 158.99 253.63 164.03 257.08 170.51C260.53 177 262.26 184.55 262.26 193.17C262.26 201.79 260.53 209.34 257.08 215.83C253.63 222.32 248.87 227.35 242.81 230.93C236.75 234.51 230.01 236.3 222.62 236.3C212.46 236.3 204.47 232.93 198.66 226.18V265.26H175.58V151.28H197.62V160.93C203.34 153.67 211.67 150.03 222.62 150.03C230.02 150.03 236.75 151.82 242.81 155.4V155.41ZM233.19 210.06C236.99 205.86 238.89 200.23 238.89 193.17C238.89 186.11 236.99 180.48 233.19 176.28C229.39 172.08 224.54 169.97 218.62 169.97C212.7 169.97 207.84 172.07 204.05 176.28C200.25 180.48 198.35 186.12 198.35 193.17C198.35 200.22 200.25 205.86 204.05 210.06C207.84 214.26 212.7 216.37 218.62 216.37C224.54 216.37 229.39 214.27 233.19 210.06Z"
            fill="white" />
        <path
            d="M352.82 200.02H292.61C293.69 205.21 296.26 209.31 300.3 212.32C304.34 215.33 309.37 216.84 315.39 216.84C319.53 216.84 323.2 216.19 326.41 214.89C329.61 213.59 332.6 211.54 335.36 208.74L347.64 222.75C340.14 231.78 329.2 236.3 314.8 236.3C305.83 236.3 297.89 234.46 290.98 230.77C284.08 227.09 278.75 221.97 275 215.43C271.25 208.89 269.38 201.47 269.38 193.16C269.38 184.85 271.23 177.56 274.93 170.97C278.63 164.38 283.71 159.24 290.17 155.55C296.63 151.87 303.85 150.02 311.84 150.02C319.83 150.02 326.68 151.79 332.99 155.31C339.3 158.84 344.26 163.9 347.86 170.49C351.46 177.08 353.26 184.74 353.26 193.46C353.26 193.77 353.11 195.95 352.82 200V200.02ZM298.83 173.08C295.28 176.19 293.11 180.45 292.32 185.85H331.52C330.73 180.56 328.56 176.33 325.01 173.16C321.46 169.99 317.12 168.41 311.99 168.41C306.86 168.41 302.38 169.97 298.82 173.08H298.83Z"
            fill="white" />
        <path
            d="M437.46 159.38C443.52 165.61 446.56 174.85 446.56 187.1V235.06H423.48V190.84C423.48 184.2 422.1 179.24 419.34 175.97C416.58 172.7 412.58 171.07 407.36 171.07C401.54 171.07 396.91 172.97 393.46 176.75C390.01 180.54 388.28 186.17 388.28 193.64V235.06H365.2V151.29H387.24V161.1C390.3 157.57 394.09 154.85 398.63 152.93C403.17 151.01 408.15 150.05 413.57 150.05C423.43 150.05 431.39 153.16 437.46 159.39V159.38Z"
            fill="white" />
        <path
            d="M162.98 264.31V379.85H140.94V370.2C135.22 377.47 126.94 381.1 116.09 381.1C108.59 381.1 101.82 379.34 95.75 375.81C89.69 372.28 84.93 367.25 81.48 360.71C78.03 354.17 76.3 346.59 76.3 337.98C76.3 329.37 78.02 321.79 81.48 315.25C84.93 308.71 89.69 303.68 95.75 300.15C101.81 296.62 108.59 294.86 116.09 294.86C126.25 294.86 134.19 298.23 139.91 304.98V264.34H162.99L162.98 264.31ZM134.58 354.85C138.43 350.65 140.35 345.02 140.35 337.96C140.35 330.9 138.43 325.27 134.58 321.07C130.73 316.87 125.9 314.76 120.08 314.76C114.26 314.76 109.28 316.86 105.44 321.07C101.59 325.27 99.67 330.91 99.67 337.96C99.67 345.01 101.59 350.65 105.44 354.85C109.29 359.05 114.17 361.16 120.08 361.16C125.99 361.16 130.73 359.06 134.58 354.85Z"
            fill="white" />
        <path
            d="M241.43 304.09C248.04 310.27 251.34 319.58 251.34 332.04V379.84H229.74V369.41C225.4 377.2 217.31 381.09 205.48 381.09C199.36 381.09 194.06 380 189.58 377.82C185.09 375.64 181.67 372.63 179.3 368.79C176.93 364.95 175.75 360.59 175.75 355.71C175.75 347.92 178.54 341.8 184.11 337.34C189.68 332.88 198.28 330.64 209.92 330.64H228.26C228.26 325.35 226.73 321.27 223.67 318.42C220.61 315.57 216.03 314.14 209.91 314.14C205.67 314.14 201.5 314.84 197.41 316.24C193.32 317.64 189.84 319.54 186.98 321.92L178.7 304.95C183.04 301.73 188.24 299.24 194.31 297.48C200.37 295.72 206.61 294.83 213.02 294.83C225.35 294.83 234.81 297.92 241.42 304.09H241.43ZM221.76 361.86C224.82 359.94 226.99 357.11 228.27 353.37V344.81H212.44C202.97 344.81 198.24 348.08 198.24 354.62C198.24 357.73 199.4 360.2 201.72 362.02C204.04 363.84 207.22 364.74 211.26 364.74C215.3 364.74 218.7 363.78 221.76 361.86Z"
            fill="white" />
        <path
            d="M335.61 300.2C341.67 303.78 346.43 308.82 349.88 315.3C353.33 321.79 355.06 329.34 355.06 337.96C355.06 346.58 353.33 354.13 349.88 360.62C346.43 367.11 341.67 372.14 335.61 375.72C329.55 379.3 322.81 381.09 315.42 381.09C305.26 381.09 297.27 377.72 291.46 370.97V410.05H268.38V296.07H290.42V305.72C296.14 298.46 304.47 294.82 315.42 294.82C322.82 294.82 329.55 296.61 335.61 300.19V300.2ZM325.99 354.85C329.79 350.65 331.69 345.02 331.69 337.96C331.69 330.9 329.79 325.27 325.99 321.07C322.19 316.87 317.34 314.76 311.42 314.76C305.5 314.76 300.64 316.86 296.85 321.07C293.05 325.27 291.15 330.91 291.15 337.96C291.15 345.01 293.05 350.65 296.85 354.85C300.64 359.05 305.5 361.16 311.42 361.16C317.34 361.16 322.19 359.06 325.99 354.85Z"
            fill="white" />
        <path
            d="M434.83 300.2C440.89 303.78 445.65 308.82 449.1 315.3C452.55 321.79 454.28 329.34 454.28 337.96C454.28 346.58 452.55 354.13 449.1 360.62C445.65 367.11 440.89 372.14 434.83 375.72C428.77 379.3 422.03 381.09 414.64 381.09C404.48 381.09 396.49 377.72 390.68 370.97V410.05H367.6V296.07H389.64V305.72C395.36 298.46 403.69 294.82 414.64 294.82C422.04 294.82 428.77 296.61 434.83 300.19V300.2ZM425.21 354.85C429.01 350.65 430.91 345.02 430.91 337.96C430.91 330.9 429.01 325.27 425.21 321.07C421.41 316.87 416.56 314.76 410.64 314.76C404.72 314.76 399.86 316.86 396.07 321.07C392.27 325.27 390.37 330.91 390.37 337.96C390.37 345.01 392.27 350.65 396.07 354.85C399.86 359.05 404.72 361.16 410.64 361.16C416.56 361.16 421.41 359.06 425.21 354.85Z"
            fill="white" />
        <path
            d="M474.84 378.52C468.53 376.81 463.5 374.65 459.75 372.06L467.44 354.62C470.99 357.01 475.28 358.96 480.31 360.46C485.34 361.97 490.27 362.72 495.1 362.72C504.86 362.72 509.74 360.18 509.74 355.09C509.74 352.7 508.41 350.99 505.75 349.95C503.09 348.91 498.99 348.03 493.47 347.3C486.96 346.26 481.59 345.07 477.35 343.72C473.11 342.37 469.44 339.98 466.33 336.56C463.22 333.14 461.67 328.26 461.67 321.92C461.67 316.63 463.12 311.93 466.03 307.83C468.94 303.73 473.18 300.54 478.75 298.25C484.32 295.97 490.9 294.82 498.5 294.82C504.12 294.82 509.72 295.47 515.29 296.77C520.86 298.07 525.47 299.86 529.12 302.14L521.43 319.42C514.43 315.27 506.79 313.19 498.5 313.19C493.57 313.19 489.87 313.92 487.41 315.37C484.94 316.82 483.71 318.69 483.71 320.98C483.71 323.58 485.04 325.39 487.7 326.43C490.36 327.47 494.6 328.45 500.42 329.39C506.93 330.53 512.25 331.75 516.4 333.05C520.54 334.35 524.14 336.71 527.2 340.13C530.26 343.56 531.79 348.33 531.79 354.46C531.79 359.65 530.31 364.27 527.35 368.32C524.39 372.37 520.08 375.51 514.41 377.74C508.74 379.97 502.01 381.09 494.22 381.09C487.61 381.09 481.15 380.23 474.84 378.52Z"
            fill="white" />
        <path
            d="M348.36 531.79H183.42C165.58 531.79 148.8 524.84 136.19 512.22L19.56 395.59C6.94 382.97 0 366.2 0 348.36V183.42C0 165.58 6.95 148.8 19.56 136.19L136.19 19.56C148.81 6.95 165.58 0 183.43 0H348.37C366.21 0 382.99 6.95 395.6 19.56L512.23 136.19C524.85 148.81 531.8 165.58 531.8 183.42V261.71H516.8V183.42C516.8 169.58 511.41 156.58 501.63 146.79L385 30.16C375.22 20.38 362.21 14.99 348.37 14.99H183.43C169.59 14.99 156.59 20.38 146.8 30.16L30.17 146.8C20.39 156.58 15 169.59 15 183.43V348.37C15 362.21 20.39 375.21 30.17 385L146.8 501.63C156.58 511.41 169.59 516.8 183.43 516.8H348.37C362.21 516.8 375.21 511.41 385 501.63L474.63 412L485.24 422.61L395.61 512.24C382.99 524.86 366.22 531.81 348.38 531.81L348.36 531.79Z"
            fill="white" />
    </g>
    <defs>
        <clipPath id="clip0_209_2439">
            <rect width="531.79" height="531.79" fill="white" />
        </clipPath>
    </defs>
</svg>
